X: 761
T: Shiquan renxen
L: 1/8
M: 4/4
K: G
A A A d/ e/ c BA2 [I:setbarnb 1]| 
d B/ A/ A ED4 | 
A B A A G F E D | 
A G E/ D/ ED4 | 
A GA2A d c B | 
A A/ B/ A DG4 | 
d F A B A G E D | 
A G E/ D/ ED4 | 
A A/ B/ A dG4 | 
d F A B A G E D | 
A G E/ D/ ED4 |]

@@@ Tune index: 9635
